docs/static/logos/twitter.svg

<svg width="19" height="16" viewBox="0 0 19 16" fill="none" xmlns="http://www.w3.org/2000/svg">
<path d="M18.5 1.89583C17.8248 2.22181 17.1104 2.43658 16.3794 2.53333C17.1476 2.03349 17.7254 1.23941 18.0043 0.300006C17.2779 0.771918 16.4846 1.10303 15.6583 1.27917C15.3103 0.873975 14.8918 0.551632 14.4282 0.331733C13.9647 0.111834 13.4657 -0.00102805 12.9616 7.05599e-06C10.9209 7.05599e-06 9.26938 1.80833 9.26938 4.03749C9.26793 4.34756 9.29991 4.65671 9.36462 4.95832C7.90126 4.8821 6.46832 4.46732 5.15749 3.74052C3.84666 3.01372 2.68681 1.9909 1.75213 0.737505C1.42422 1.35172 1.2508 2.05252 1.25 2.76666C1.25 4.16666 1.90738 5.40416 2.9 6.12915C2.3119 6.11365 1.73585 5.9407 1.22075 5.62499V5.67499C1.22075 7.63332 2.49575 9.26248 4.18325 9.63331C3.86592 9.7273 3.53891 9.77493 3.2105 9.77498C2.97747 9.77543 2.74496 9.75031 2.51638 9.69998C2.9855 11.3041 4.35088 12.4708 5.96825 12.5041C4.65402 13.6295 3.04048 14.2378 1.38125 14.2333C1.08673 14.2328 0.792487 14.2133 0.5 14.175C2.18794 15.3726 4.15004 16.006 6.15275 16C12.9538 16 16.6693 9.84581 16.6693 4.50833C16.6693 4.33333 16.6651 4.15833 16.6576 3.98749C17.3788 3.41752 18.0027 2.70921 18.5 1.89583Z" fill="#92A0B3"/>
</svg>

<svg xmlns="http://www.w3.org/2000/svg" width="19" height="16" fill="none" viewBox="0 0 19 16"><path fill="#92A0B3" d="M18.5 1.896a6.99 6.99 0 0 1-2.12.637c.768-.5 1.345-1.294 1.624-2.233a6.975 6.975 0 0 1-2.346.98 3.738 3.738 0 0 0-1.23-.948A3.4 3.4 0 0 0 12.962 0C10.92 0 9.269 1.808 9.269 4.037c-.001.31.03.62.096.921a9.707 9.707 0 0 1-4.208-1.217A10.794 10.794 0 0 1 1.752.738a4.329 4.329 0 0 0-.502 2.029c0 1.4.657 2.637 1.65 3.362a3.379 3.379 0 0 1-1.68-.504v.05c0 1.958 1.276 3.587 2.963 3.958a3.424 3.424 0 0 1-.972.142c-.234 0-.466-.025-.695-.075.47 1.604 1.835 2.77 3.452 2.804-1.314 1.126-2.928 1.734-4.587 1.73a6.837 6.837 0 0 1-.881-.059C2.188 15.373 4.15 16.006 6.153 16c6.8 0 10.516-6.154 10.516-11.492 0-.175-.004-.35-.011-.52A7.935 7.935 0 0 0 18.5 1.895Z"/></svg>
